assets/Japanese congratulations button/Flat/japanese_congratulations_button_flat.svg

<svg width="32" height="32" viewBox="0 0 32 32" fill="none" xmlns="http://www.w3.org/2000/svg">
<path d="M16 30C8.27 30 2 23.73 2 16C2 8.27 8.27 2 16 2C23.73 2 30 8.27 30 16C30 23.73 23.73 30 16 30Z" fill="#F92F60"/>
<path d="M11.57 6.47998C11.57 5.9277 11.1222 5.47998 10.57 5.47998C10.0177 5.47998 9.56996 5.9277 9.56996 6.47998V9.15503C9.56996 9.22406 9.514 9.28003 9.44497 9.28003H7.71996C7.16768 9.28003 6.71996 9.72774 6.71996 10.28C6.71996 10.8323 7.16768 11.28 7.71996 11.28H12.1709C12.2496 11.28 12.3088 11.3519 12.2914 11.4287C12.0471 12.5053 11.4626 13.4853 10.6084 14.2214L10.6074 14.2223L9.93649 14.7968C9.8704 14.8408 9.80876 14.8931 9.75323 14.9538L6.91951 17.3805C6.50003 17.7397 6.45118 18.371 6.81042 18.7905C7.16965 19.21 7.80093 19.2588 8.22042 18.8996L9.36366 17.9205C9.44475 17.8511 9.56996 17.9087 9.56996 18.0155V24.52C9.56996 25.0723 10.0177 25.52 10.57 25.52C11.1222 25.52 11.57 25.0723 11.57 24.52V17.9673C11.57 17.8638 11.6886 17.8051 11.7709 17.868L12.8127 18.6644C13.2514 18.9999 13.879 18.9161 14.2144 18.4774C14.5499 18.0386 14.4661 17.411 14.0274 17.0756L12.1998 15.6784C12.138 15.6312 12.134 15.5396 12.1903 15.4858C13.608 14.1313 14.42 12.2575 14.42 10.28C14.42 9.72774 13.9722 9.28003 13.42 9.28003H11.695C11.6259 9.28003 11.57 9.22406 11.57 9.15503V6.47998Z" fill="white"/>
<path d="M16.46 8C15.9077 8 15.46 8.44772 15.46 9V13.625C15.46 14.1773 15.9077 14.625 16.46 14.625H16.9638C17.0341 14.625 17.0906 14.6832 17.0884 14.7534C17.0309 16.5625 16.759 18.0291 16.2452 19.3684C15.6611 20.8913 14.7417 22.309 13.3663 23.9111C13.0065 24.3302 13.0546 24.9615 13.4736 25.3213C13.8927 25.681 14.524 25.6329 14.8838 25.2139C16.3521 23.5035 17.4202 21.8899 18.1126 20.0847C18.7307 18.4733 19.0315 16.7563 19.0895 14.7472C19.0914 14.6794 19.1469 14.625 19.2147 14.625H19.875C19.944 14.625 20 14.681 20 14.75V22.0787C20 23.1687 20.9177 23.9688 21.9368 23.9688H24.0631C25.0823 23.9688 26 23.1687 26 22.0787V21.0687C26 20.5165 25.5522 20.0687 25 20.0687C24.4477 20.0687 24 20.5165 24 21.0687V21.8438C24 21.9128 23.944 21.9688 23.875 21.9688H22.125C22.056 21.9688 22 21.9128 22 21.8438V14.75C22 14.681 22.056 14.625 22.125 14.625H23C23.5523 14.625 24 14.1773 24 13.625V9C24 8.44772 23.5523 8 23 8H16.46ZM17.585 12.625C17.5159 12.625 17.46 12.569 17.46 12.5V10.125C17.46 10.056 17.5159 10 17.585 10H21.875C21.944 10 22 10.056 22 10.125V12.5C22 12.569 21.944 12.625 21.875 12.625H17.585Z" fill="white"/>
</svg>

<svg xmlns="http://www.w3.org/2000/svg" width="32" height="32" fill="none"><path fill="#F92F60" d="M16 30C8.27 30 2 23.73 2 16S8.27 2 16 2s14 6.27 14 14-6.27 14-14 14Z"/><path fill="#fff" d="M11.57 6.48a1 1 0 0 0-2 0v2.675a.125.125 0 0 1-.125.125H7.72a1 1 0 1 0 0 2h4.45c.08 0 .139.072.121.149a5.207 5.207 0 0 1-1.683 2.792v.001l-.672.575a.996.996 0 0 0-.183.157L6.92 17.38a1 1 0 0 0 1.3 1.519l1.144-.98a.125.125 0 0 1 .206.095v6.505a1 1 0 0 0 2 0v-6.553c0-.103.119-.162.2-.099l1.043.796a1 1 0 1 0 1.214-1.588L12.2 15.678a.127.127 0 0 1-.01-.192 7.194 7.194 0 0 0 2.23-5.206 1 1 0 0 0-1-1h-1.725a.125.125 0 0 1-.125-.125V6.48Z"/><path fill="#fff" d="M16.46 8a1 1 0 0 0-1 1v4.625a1 1 0 0 0 1 1h.504c.07 0 .127.058.124.128-.057 1.81-.329 3.276-.843 4.615-.584 1.523-1.503 2.941-2.879 4.543a1 1 0 1 0 1.518 1.303c1.468-1.71 2.536-3.324 3.229-5.13.618-1.61.919-3.328.977-5.337a.126.126 0 0 1 .125-.122h.66c.069 0 .125.056.125.125v7.329c0 1.09.918 1.89 1.937 1.89h2.126c1.02 0 1.937-.8 1.937-1.89v-1.01a1 1 0 0 0-2 0v.775a.125.125 0 0 1-.125.125h-1.75a.125.125 0 0 1-.125-.125V14.75c0-.069.056-.125.125-.125H23a1 1 0 0 0 1-1V9a1 1 0 0 0-1-1h-6.54Zm1.125 4.625a.125.125 0 0 1-.125-.125v-2.375c0-.069.056-.125.125-.125h4.29c.069 0 .125.056.125.125V12.5a.125.125 0 0 1-.125.125h-4.29Z"/></svg>
